X:0143
T:Norickystie or the Wild Irish Man.
M:6/8
L:1/8
Q:3/8=120
I: :: ::
Z:Jack Campin * www.campin.me.uk * 2009
K:D
A|d2e f2d|g2e f2d| d2e fed|c3 e3 |
  d2e f2d|g2e f2d| fga gec|d3 d2:|
g|fed c2B|ABA A2g|!fed c2A|B3 g3 |
  fed c2B|ABA A2g| fga gec|d3 d2:|
<end>
<start>
